images/icons/social/mail-blue.svg

<svg viewBox="0 0 20 16" xmlns="http://www.w3.org/2000/svg"><g fill="none" fill-rule="evenodd" transform="translate(-2 -4)"><path d="m0 0h24v24h-24z"/><path d="m20 4h-16c-1.1 0-1.99.9-1.99 2l-.01 12c0 1.1.9 2 2 2h16c1.1 0 2-.9 2-2v-12c0-1.1-.9-2-2-2zm0 14h-16v-10l8 5 8-5zm-8-7-8-5h16z" fill="#1399b9"/></g></svg>

<?xml version="1.0" encoding="UTF-8"?>
<svg viewBox="0 0 20 16" version="1.1" xmlns="http://www.w3.org/2000/svg" xmlns:xlink="http://www.w3.org/1999/xlink">
    <defs></defs>
    <g id="Mockups-v5-Sizes" stroke="none" stroke-width="1" fill="none" fill-rule="evenodd">
        <g id="Desktop-—-1920" transform="translate(-690.000000, -3151.000000)">
            <g id="Group-29" transform="translate(376.000000, 3135.000000)">
                <g id="ic_mail_outline_black_24px-copy" transform="translate(312.000000, 12.000000)">
                    <g id="Group">
                        <polygon id="Shape" points="0 0 24 0 24 24 0 24"></polygon>
                        <path d="M20,4 L4,4 C2.9,4 2.01,4.9 2.01,6 L2,18 C2,19.1 2.9,20 4,20 L20,20 C21.1,20 22,19.1 22,18 L22,6 C22,4.9 21.1,4 20,4 Z M20,18 L4,18 L4,8 L12,13 L20,8 L20,18 Z M12,11 L4,6 L20,6 L12,11 Z" id="Shape" fill="#1399B9"></path>
                    </g>
                </g>
            </g>
        </g>
    </g>
</svg>
